X: 040265
T: Doctor Frank
C: P.Fitzgerald
Z: B.Black
R: jig
M: 6/8
L: 1/8
K: G
Bgd edB | AGA EGA | BdA ABd | ega bga |
bgd edB | AGA EGA | BAE GAB | AGE G3 :|
gab egf | gdB AFD | EGA Bde | fde def |
gab egf | gdB AFD | Bdf caf | dba G3 :|
